!!!OTL: FAHR MER NET UEBER MEIN AECKERLE
!!!ARE: Europa, Mitteleuropa, Deutschland, Schwaben; Schweiz
!!!SCT: E1005B
!!!YEM: Copyright 1995, estate of Helmut Schaffrath.
**kern
*ICvox
*Ivox
*M3/8
*k[f#]
*G:
=1
{8.g
16a
8g
=2
8g
8b
8dd
=3
8a
8f#
8d}
=4
{8.g
16a
8g
=5
8g
8b
8dd
=6
4a
8r}
=7
{8.cc
16dd
8cc
=8
8cc
8ee
8gg
=9
8dd
8b
8g}
=10
{8.dd
16b
8g
=11
8d
8e
8f#
=12
4g
8r}
==
!!!AGN: Tanz - Lied
!!!ONB: ESAC (Essen Associative Code) Database: ERK3
!!!AMT: simple triple
!!!AIN: vox
!!!EED: Helmut Schaffrath
!!!EEV: 1.0
*-
